X:42
T:42.  She's A Keeper
C:c 2003 Harry Bolick  
R:Breakdown
O:United States
A:Hastings On Hudson, New York
M:2/4
L:1/8
Q:180
K:Ador
|: "A-no3rd" A2A>A|(B/2A/2G) A2|"C"cc"D" d2 |"C" cc "D" (dc/2A/2)  |
 "A-no3rd" A>A AA|(B/2A/2G) A2|"D"dd "C"(c/2A/2)G|"A-no3rd"[E4A,4] :|
e/2g/2e/2d/2 (c>A)| "C" gg "D" a2| "C"gg "D" (a/2g/2e)|
"A-no3rd" e/2g/2e/2d/2 (c>A)|e/2g/2e/2d/2 (c>A)|"C" gg "D"a2|"C"[gc][gc] "D"a/2g/2e|"G"[g4B4]:|
